svg/fluentui-system-icons/ic_fluent_vault_24_filled.svg

<svg width="24" height="24" viewBox="0 0 24 24" fill="none" xmlns="http://www.w3.org/2000/svg">
<path d="M14 13.5C14.8284 13.5 15.5 12.8284 15.5 12C15.5 11.1716 14.8284 10.5 14 10.5C13.1716 10.5 12.5 11.1716 12.5 12C12.5 12.8284 13.1716 13.5 14 13.5ZM2 7.75C2 5.67893 3.67893 4 5.75 4H18.25C20.3211 4 22 5.67893 22 7.75V16.25C22 18.3211 20.3211 20 18.25 20H5.75C3.67893 20 2 18.3211 2 16.25V7.75ZM5.75 7C5.33579 7 5 7.33579 5 7.75V16.25C5 16.6642 5.33579 17 5.75 17C6.16421 17 6.5 16.6642 6.5 16.25V7.75C6.5 7.33579 6.16421 7 5.75 7ZM11.2803 8.21967C10.9874 7.92678 10.5126 7.92678 10.2197 8.21967C9.92678 8.51256 9.92678 8.98744 10.2197 9.28033L11.4154 10.476C11.1514 10.9227 11 11.4436 11 12C11 12.5564 11.1514 13.0773 11.4154 13.524L10.2197 14.7197C9.92678 15.0126 9.92678 15.4874 10.2197 15.7803C10.5126 16.0732 10.9874 16.0732 11.2803 15.7803L12.476 14.5846C12.9227 14.8486 13.4436 15 14 15C14.5564 15 15.0773 14.8486 15.524 14.5846L16.7197 15.7803C17.0126 16.0732 17.4874 16.0732 17.7803 15.7803C18.0732 15.4874 18.0732 15.0126 17.7803 14.7197L16.5846 13.524C16.8486 13.0773 17 12.5564 17 12C17 11.4436 16.8486 10.9227 16.5846 10.476L17.7803 9.28033C18.0732 8.98744 18.0732 8.51256 17.7803 8.21967C17.4874 7.92678 17.0126 7.92678 16.7197 8.21967L15.524 9.41536C15.0773 9.15145 14.5564 9 14 9C13.4436 9 12.9227 9.15145 12.476 9.41536L11.2803 8.21967Z" fill="#212121"/>
</svg>

<svg xmlns="http://www.w3.org/2000/svg" width="24" height="24"><path d="M14 13.5a1.5 1.5 0 1 0 0-3 1.5 1.5 0 0 0 0 3ZM2 7.75A3.75 3.75 0 0 1 5.75 4h12.5A3.75 3.75 0 0 1 22 7.75v8.5A3.75 3.75 0 0 1 18.25 20H5.75A3.75 3.75 0 0 1 2 16.25v-8.5ZM5.75 7a.75.75 0 0 0-.75.75v8.5a.75.75 0 0 0 1.5 0v-8.5A.75.75 0 0 0 5.75 7Zm5.53 1.22a.75.75 0 1 0-1.06 1.06l1.195 1.196A2.985 2.985 0 0 0 11 12c0 .556.151 1.077.415 1.524L10.22 14.72a.75.75 0 1 0 1.06 1.06l1.196-1.195c.447.264.968.415 1.524.415s1.077-.151 1.524-.415l1.196 1.195a.75.75 0 1 0 1.06-1.06l-1.195-1.196c.264-.447.415-.968.415-1.524s-.151-1.077-.415-1.524L17.78 9.28a.75.75 0 0 0-1.06-1.06l-1.196 1.195A2.986 2.986 0 0 0 14 9c-.556 0-1.077.151-1.524.415L11.28 8.22Z"/></svg>
